docs/.gitbook/assets/icon-x-mark-top-right-square-16@dark.svg

<svg width="32" height="32" viewBox="0 0 16 16" fill="none" xmlns="http://www.w3.org/2000/svg">
<rect x="0" y="0" width="16" height="16" fill="#181c1f"/>
<path fill-rule="evenodd" clip-rule="evenodd" d="M5.75 2.5C3.95507 2.5 2.5 3.95507 2.5 5.75V10.25C2.5 12.0449 3.95507 13.5 5.75 13.5H10.25C12.0449 13.5 13.5 12.0449 13.5 10.25V9.75C13.5 9.33579 13.8358 9 14.25 9C14.6642 9 15 9.33579 15 9.75V10.25C15 12.8734 12.8734 15 10.25 15H5.75C3.12665 15 1 12.8734 1 10.25V5.75C1 3.12665 3.12665 1 5.75 1H6.25C6.66421 1 7 1.33579 7 1.75C7 2.16421 6.66421 2.5 6.25 2.5H5.75ZM8.71967 1.71967C9.01256 1.42678 9.48744 1.42678 9.78033 1.71967L11.5 3.43934L13.2197 1.71967C13.5126 1.42678 13.9874 1.42678 14.2803 1.71967C14.5732 2.01256 14.5732 2.48744 14.2803 2.78033L12.5607 4.5L14.2803 6.21967C14.5732 6.51256 14.5732 6.98744 14.2803 7.28033C13.9874 7.57322 13.5126 7.57322 13.2197 7.28033L11.5 5.56066L9.78033 7.28033C9.48744 7.57322 9.01256 7.57322 8.71967 7.28033C8.42678 6.98744 8.42678 6.51256 8.71967 6.21967L10.4393 4.5L8.71967 2.78033C8.42678 2.48744 8.42678 2.01256 8.71967 1.71967Z" fill="#fff"/>
</svg>

<svg xmlns="http://www.w3.org/2000/svg" width="32" height="32" fill="none" viewBox="0 0 16 16"><path fill="#181c1f" d="M0 0h16v16H0z"/><path fill="#fff" fill-rule="evenodd" d="M5.75 2.5A3.25 3.25 0 0 0 2.5 5.75v4.5a3.25 3.25 0 0 0 3.25 3.25h4.5a3.25 3.25 0 0 0 3.25-3.25v-.5a.75.75 0 0 1 1.5 0v.5A4.75 4.75 0 0 1 10.25 15h-4.5A4.75 4.75 0 0 1 1 10.25v-4.5A4.75 4.75 0 0 1 5.75 1h.5a.75.75 0 0 1 0 1.5zm2.97-.78a.75.75 0 0 1 1.06 0l1.72 1.72 1.72-1.72a.75.75 0 1 1 1.06 1.06L12.56 4.5l1.72 1.72a.75.75 0 0 1-1.06 1.06L11.5 5.56 9.78 7.28a.75.75 0 0 1-1.06-1.06l1.72-1.72-1.72-1.72a.75.75 0 0 1 0-1.06" clip-rule="evenodd"/></svg>
